X: 7
T:Untitled. HA.008
M:6/4
L:1/8
Q:200
S:Henry Atkinson's original MS,Hartburn,N'umberland,1694.
R:Jigg
O:England
A:Hartburn,Northumberland
N:NB=Probably meant to be a minim and a half, but not in need of an
N:editorial  dispute.HA has a tendency to not dot leading crotchets when
N:he should. I have let it lie when, as here, confusion doesn't result
N:for PlayQabc. CGP
H:1/8
Z:vmp.Chris Partington.Jan.2004
K:F
"as writ"f2gf2 e2dc2|d2ed2 c2BA2|"NB"d4A4|!
d2ed2 c2BA2|B2cd2 G2FE2|F4c4||!
B2cB2 A2B2c2|d2ed2 g2a (gf)|e4c4|!
a2g"qu"a2 b2ab2|f2gf2 e2d2c2|f6F6|]
W:qu=quaver in MS
